!!!!SEGMENT: pl-cz--d-ii-28--003_elsner-jozef--missa-f-op-85-credo.krn
!!!cenid: 18xx:322
!!!COM: Elsner, Józef
!!!COM-rismid: pe30000957
!!!CDT: 1769/06/01-1854/04/18
!!!CNT: Polish
!!!OPR: Missa F op. 85
!!!OTL: Credo
!!!OMV: 003
!!!PDT: 1847
!!!AGN: Sacred; Mass section
!!!SMS-siglum: PL-CZ
!!!SMS-shelfmark: D II-28
!!!SMS-shelfwork: 001-003 M
!!!SMS-variant:
!!!SMS-altvar:
!!!NIFC-rismid:
!!!URL-scan: http://repozytorium.nifc.pl/skany/pl-cz-nut--dii-28
!!!ONB-nifc: UWAGA: części Mszy: Kyrie, Gloria, Credo, Sanctus, Benedictus, Agnus Dei; Credo uzupełnić na podstawie II-30 (http://repozytoriumplikow.nifc.pl/skany/pl-cz-nut--dii-30)
!!!OMD: Allegro
!!!key: d
**kern	**kern	**dynam	**kern	**text	**dynam	**kern	**text	**dynam	**kern	**text	**dynam
*	*	*	*	*	*	*group1	*	*	*group1	*	*
*part4	*part4	*part4	*part3	*part3	*part3	*part2	*part2	*part2	*part1	*part1	*part1
*staff5	*staff4	*	*staff3	*staff3	*	*staff2	*staff2	*	*staff1	*staff1	*
*I"Organo	*I"Organo	*	*I"Basso	*	*	*I""Tenori	*	*	*I""Tenore.	*	*
*Iorg	*Iorg	*	*Ibass	*	*	*Itenor	*	*	*Itenor	*	*
*ICklav	*ICklav	*	*ICvox	*	*	*ICvox	*	*	*ICvox	*	*
*clefF4	*clefG2	*	*clefF4	*	*	*clefC4	*	*	*clefC4	*	*
*k[b-]	*k[b-]	*	*k[b-]	*	*	*k[b-]	*	*	*k[b-]	*	*
*d:	*d:	*	*d:	*	*	*d:	*	*	*d:	*	*
*M4/4	*M4/4	*	*M4/4	*	*	*M4/4	*	*	*M4/4	*	*
*met(c)	*met(c)	*	*met(c)	*	*	*met(c)	*	*	*met(c)	*	*
*8ba	*	*	*	*	*	*	*	*	*	*	*
=1	=1	=1	=1	=1	=1	=1	=1	=1	=1	=1	=1
!LO:TX:a:Bi:t=Allegro.	!LO:TX:a:i:t=minore:rj	!	!	!	!	!	!	!	!LO:TX:a:i:t=minore	!	!
4DD\	4dd 4d/	.	4D\	Cre-	.	4D/	Cre-	.	4D/	Cre-	.
8CC#X\L	8cc#XL 8c#X/	.	8C#X\	-do	.	8C#X/	-do	.	8C#X/	-do	.
8DD\J	8ddJ 8d/	.	8D\	in	.	8D/	in	.	8D/	in	.
4EE\	4ee 4e\	.	4E\	u-	.	4E/	u-	.	4E/	u-	.
8DD\L	8ddL 8d\	.	8D\L	-num	.	8D/L	-num	.	8D/L	-num	.
8EE\J	8eeJ 8e\	.	8E\J	.	.	8E/J	.	.	8E/J	.	.
=2	=2	=2	=2	=2	=2	=2	=2	=2	=2	=2	=2
2FF\	2ff 2f/	.	2F\	De-	.	2F/	De-	.	2F/	De-	.
2DD\	2dd 2d/	.	2D\	-um	.	2D/	-um	.	2D/	-um	.
=3	=3	=3	=3	=3	=3	=3	=3	=3	=3	=3	=3
4EE\	4ee 4e\	.	4E\	pa-	.	4E/	pa-	.	4E/	pa-	.
8DD\L	8ddL 8d\	.	8D\	-trem	.	8D/	-trem	.	8D/	-trem	.
8EE\J	8eeJ 8e\	.	8E\	om-	.	8E/	om-	.	8E/	om-	.
4FF\	4ff 4f\	.	4F\	-ni-	.	4F/	-ni-	.	4F/	-ni-	.
8EE\L	8eeL 8e\	.	8E\L	-po-	.	8E/L	-po-	.	8E/L	-po-	.
8FF\J	8ffJ 8f\	.	8F\J	.	.	8F/J	.	.	8F/J	.	.
=4	=4	=4	=4	=4	=4	=4	=4	=4	=4	=4	=4
2GG\	2gg 2g\	.	2G\	-ten-	.	2G/	-ten-	.	2G/	-ten-	.
2EE\	2ee 2e\	.	4E\	-tem	.	4E/	-tem	.	4E/	-tem	.
.	.	.	4E\	fac-	.	4E/	fac-	.	4E/	fac-	.
=5	=5	=5	=5	=5	=5	=5	=5	=5	=5	=5	=5
4FF\	4ff 4f\	.	4F\	-to-	.	4F/	-to-	.	4F/	-to-	.
8EE\L	8ddL 8d\	.	8E\L	-rem	.	8E/L	-rem	.	8E/L	-rem	.
8FF\J	8eeJ 8e\	.	8F\J	.	.	8F/J	.	.	8F/J	.	.
4GG\	4gg 4g\	.	4G\	ce-	.	4G/	ce-	.	4G/	ce-	.
8FF\L	8ffL 8f\	.	8F\	-li	.	8F/	-li	.	8F/	-li	.
8GG\J	8ggJ 8g\	.	8G\	et	.	8G/	et	.	8G/	et	.
=6	=6	=6	=6	=6	=6	=6	=6	=6	=6	=6	=6
2AA\	2aa 2a\	.	2A\	ter-	.	2A/	ter-	.	2A/	ter-	.
2FF\	2ff 2f\	.	2F\	-ra	.	2F/	-ra	.	2F/	-ra	.
=7	=7	=7	=7	=7	=7	=7	=7	=7	=7	=7	=7
4BB-\	4bb- 4b-\	.	4B-\	vi-	.	4B-/	vi-	.	4B-/	vi-	.
4GG\	4gg 4g\	.	4G\	-si-	.	4G/	-si-	.	4G/	-si-	.
4EE\	4ee 4e\	.	4E\	-bi-	.	4E/	-bi-	.	4E/	-bi-	.
8AA\L	8aaL 8a\	.	8A\	-li-	.	8A/	-li-	.	8A/	-li-	.
8GG\J	8ggJ 8g\	.	8G\	-um	.	8G/	-um	.	8G/	-um	.
!!LO:LB:g=original
=8	=8	=8	=8	=8	=8	=8	=8	=8	=8	=8	=8
4.FF\	4.ff 4.f\	.	4.F\	om-	.	4.F/	om-	.	4.F/	om-	.
8EE\	8ee 8e\	.	8E\	-ni-	.	8E/	-ni-	.	8E/	-ni-	.
4DD\	4dd 4d\	.	4D/	-um	.	4D/	-um	.	4D/	-um	.
*X8ba	*	*	*	*	*	*	*	*	*	*	*
4BB- 4BBB-/	4gg 4dd 4g\	.	8BB-/	et	.	8D/	et	.	8G/	et	.
.	.	.	8BB-/	in-	.	8D/	in-	.	8G/	in-	.
=9	=9	=9	=9	=9	=9	=9	=9	=9	=9	=9	=9
*	*^	*	*	*	*	*	*	*	*	*	*
*	*	*^	*	*	*	*	*	*	*	*	*	*
1AA 1AAA	(2ff 2dd/	2.a\	2ryy	.	4AA/	-vi-	.	4D/	-vi-	.	4F/	-vi-	.
.	.	.	.	.	4AA/	-si-	.	4D/	-si-	.	4F/	-si-	.
.	2ee/)	.	4dd\	.	4AA/	-bi-	.	4D/	-bi-	.	4E/	-bi-	.
.	.	8cc#XL 8a\	4ryy	.	4AA/	-li-	.	4C#X/	-li-	.	4E/	-li-	.
.	.	8g\J	.	.	.	.	.	.	.	.	.	.	.
*	*v	*v	*v	*	*	*	*	*	*	*	*	*	*
=10	=10	=10	=10	=10	=10	=10	=10	=10	=10	=10	=10
2D 2DD/	2dd 2a 2f/	.	2D/	-um	.	2D/	-um	.	2D/	-um	.
2C 2CC/	2ee 2cc 2b- 2g/	.	2r	.	.	2r	.	.	2r	.	.
=11	=11	=11	=11	=11	=11	=11	=11	=11	=11	=11	=11
*	*^	*	*	*	*	*	*	*	*	*	*
2F 2FF/	4ff/	2cc 2a\	.	4F\	Et	.	4F/	Et	.	4F/	Et	.
.	8ee/L	.	.	8E\L	in	.	8E/L	in	.	8E/L	in	.
.	8ff/J	.	.	8F\J	.	.	8F/J	.	.	8F/J	.	.
2E 2EE/	4gg/	2cc 2g\	.	4G\	u-	.	4G/	u-	.	4G/	u-	.
.	8ff/L	.	.	8F\L	-num	.	8F/L	-num	.	8F/L	-num	.
.	8gg/J	.	.	8G\J	.	.	8G/J	.	.	8G/J	.	.
*	*v	*v	*	*	*	*	*	*	*	*	*	*
=12	=12	=12	=12	=12	=12	=12	=12	=12	=12	=12	=12
2D 2DD/	2aa 2ff 2a\	.	4.A\	Do-	.	4.A/	Do-	.	4.A/	Do-	.
.	.	.	8A\	-mi-	.	8A/	-mi-	.	8A/	-mi-	.
2D 2DD/	2ff 2dd 2a\	.	2F\	-num	.	2F/	-num	.	2F/	-num	.
=13	=13	=13	=13	=13	=13	=13	=13	=13	=13	=13	=13
*	*^	*	*	*	*	*	*	*	*	*	*
1C 1CC	4gg/	2ee 2cc\	.	4G\	Je-	.	4G/	Je-	.	4G/	Je-	.
.	8ff/L	.	.	8F\L	-sum	.	8F/L	-sum	.	8F/L	-sum	.
.	8gg/J	.	.	8G\J	.	.	8G/J	.	.	8G/J	.	.
.	4aa/	2ff 2cc\	.	4A\	Chri-	.	4A/	Chri-	.	4A/	Chri-	.
.	8gg/L	.	.	8G\L	-ste	.	8G/L	-ste	.	8G/L	-ste	.
.	8aa/J	.	.	8A\J	.	.	8A/J	.	.	8A/J	.	.
*	*v	*v	*	*	*	*	*	*	*	*	*	*
=14	=14	=14	=14	=14	=14	=14	=14	=14	=14	=14	=14
1C 1CC	2bb- 2gg 2cc\	.	4.B-\	fi-	.	4.B-/	fi-	.	4.B-/	fi-	.
.	.	.	8B-\	-li-	.	8B-/	-li-	.	8B-/	-li-	.
.	2gg 2ee 2cc\	.	2G\	-um	.	2G/	-um	.	2G/	-um	.
!!LO:LB:g=original
=15	=15	=15	=15	=15	=15	=15	=15	=15	=15	=15	=15
*	*^	*	*	*	*	*	*	*	*	*	*
1F 1FF	4aa/	2ff 2cc\	.	4A\	De-	.	4A\	De-	.	4A\	De-	.
.	8gg/L	.	.	8G\L	-i	.	8G\L	-i	.	8G\L	-i	.
.	8aa/J	.	.	8A\J	.	.	8A\J	.	.	8A\J	.	.
.	4bb-/	2gg 2cc\	.	4B-\	u-	.	4B-\	u-	.	4B-\	u-	.
.	8aa/L	.	.	8A\L	-ni-	.	8A\L	-ni-	.	8A\L	-ni-	.
.	8bb-/J	.	.	8B-\J	.	.	8B-\J	.	.	8B-\J	.	.
*	*v	*v	*	*	*	*	*	*	*	*	*	*
=16	=16	=16	=16	=16	=16	=16	=16	=16	=16	=16	=16
1E-X 1EE-X	2ccc 2aa 2cc\	.	4.c\	-ge-	.	4.c\	-ge-	.	4.c\	-ge-	.
.	.	.	8c\	-ni-	.	8c\	-ni-	.	8c\	-ni-	.
.	2aa 2ff 2cc\	.	2A\	-tum	.	2A\	-tum	.	2A\	-tum	.
=17	=17	=17	=17	=17	=17	=17	=17	=17	=17	=17	=17
4D 4DD/	4ddd 4aa 4ff#X 4dd\	.	4d\	et	.	4d\	et	.	4d\	et	.
4G 4GG/	4bb- 4gg 4dd\	.	4B-\	ex	.	4B-\	ex	.	4B-\	ex	.
2C 2CC/	4gg 4een 4cc\	.	4G\	pa-	.	4G/	pa-	.	4G/	pa-	.
.	4ccc 4gg 4ee\	.	8c\L	-tre	.	8c\L	-tre	.	8c\L	-tre	.
.	.	.	8B-\J	.	.	8B-\J	.	.	8B-\J	.	.
=18	=18	=18	=18	=18	=18	=18	=18	=18	=18	=18	=18
2F 2FF/	4.aa 4.ff 4.cc\	.	(4.A\	na-	.	(4.A/	na-	.	(4.A/	na-	.
.	8gg 8ee 8b-\	.	8G\)	.	.	8G/)	.	.	8G/)	.	.
4F 4FF/	4ff 4cc 4a\	.	4F\	-tum	.	4F/	-tum	.	4F/	-tum	.
4D 4DD/	4bb- 4ff 4b-\	.	8D/	an-	.	8F/	an-	.	8B-\	an-	.
.	.	.	8D/	-te	.	8F/	-te	.	8B-\	-te	.
=19	=19	=19	=19	=19	=19	=19	=19	=19	=19	=19	=19
*	*^	*	*	*	*	*	*	*	*	*	*
*	*	*^	*	*	*	*	*	*	*	*	*	*
1C 1CC	(2aa 2ff/	2.cc\	2ryy	.	4C/	om-	.	4F/	om-	.	4A/	om-	.
.	.	.	.	.	8C/	-ni-	.	8F/	-ni-	.	8A/	-ni-	.
.	.	.	.	.	8C/	-a	.	8F/	-a	.	8A/	-a	.
.	2gg/)	.	4ff\	.	4C/	Se-	.	4F/	Se-	.	4G/	Se-	.
.	.	8eeL 8cc\	4ryy	.	4C/	-cu-	.	4E/	-cu-	.	4G/	-cu-	.
.	.	8b-\J	.	.	.	.	.	.	.	.	.	.	.
*	*v	*v	*v	*	*	*	*	*	*	*	*	*	*
=20	=20	=20	=20	=20	=20	=20	=20	=20	=20	=20	=20
2F 2FF/	2ff 2cc 2a\	.	2F\	-la	.	2E/	-la	.	2F/	-la	.
2E 2EE/	2gg 2cc 2b-\	.	2r	.	.	2r	.	.	2r	.	.
=21	=21	=21	=21	=21	=21	=21	=21	=21	=21	=21	=21
[1F [1FF	2aa 2ff 2cc 2a\	.	2F\	De-	.	2A\	De-	.	2c\	De-	.
.	2bb- 2ff 2dd\	.	4F\	-um	.	4B-\	-um	.	4d\	-um	.
.	.	.	4F\	de	.	4B-\	de	.	4d\	de	.
!!LO:PB:g=original
=22	=22	=22	=22	=22	=22	=22	=22	=22	=22	=22	=22
!LO:TX:a:t=P:problem:brak zakończenia ligatury	!	!	!	!	!	!	!	!	!	!	!
1F] 1FF]	4.aa 4.ff 4.cc\	.	2F\	De-	.	(4.A\	De-	.	(4.c\	De-	.
.	8gg 8ee 8b-\	.	.	.	.	8G\)	.	.	8B-\)	.	.
.	4ff 4cc 4a\	.	4F\	-o	.	4F/	-o	.	4A\	-o	.
.	4gg 4ee 4b-\	.	4r	.	.	4r	.	.	4r	.	.
=23	=23	=23	=23	=23	=23	=23	=23	=23	=23	=23	=23
1F 1FF	2aa 2ff 2cc 2a\	.	2F\	lu-	.	2A\	lu-	.	2c\	lu-	.
.	2bb- 2ff 2dd\	.	4F\	-men	.	4B-\	-men	.	4d\	-men	.
.	.	.	4F\	de	.	4B-\	de	.	4d\	de	.
=24	=24	=24	=24	=24	=24	=24	=24	=24	=24	=24	=24
1F 1FF	4.aa 4.ff 4.cc\	.	4.F\	lu-	.	4.A/	lu-	.	4.c\	lu-	.
.	8gg 8ee 8b-\	.	8F\	-mi-	.	8G/	-mi-	.	8B-\	-mi-	.
.	4ff 4cc 4a\	.	4F\	-ne	.	4F/	-ne	.	4A\	-ne	.
.	4gg 4ee 4b-\	.	4r	.	.	4r	.	.	4r	.	.
=25	=25	=25	=25	=25	=25	=25	=25	=25	=25	=25	=25
1F 1FF	4.aa 4.ff 4.cc\	.	2F\	De-	.	4.A/	De-	.	4.c\	De-	.
.	8gg 8ee 8b-\	.	.	.	.	8G/	.	.	8B-\	.	.
.	4ff 4cc 4a\	.	2F\	-um	.	4F/	-um	.	4A\	-um	.
.	4gg 4ee 4b-\	.	.	.	.	4G/	.	.	4B-\	.	.
=26	=26	=26	=26	=26	=26	=26	=26	=26	=26	=26	=26
2.F 2.FF/	4.aa 4.ff 4.cc\	.	2F\	ve-	.	(4.A/	ve-	.	(4.c\	ve-	.
.	8gg 8ee 8b-\	.	.	.	.	8G/)	.	.	8B-\)	.	.
.	4ff 4cc 4a\	.	4F\	-rum	.	4F/	-rum	.	4A\	-rum	.
4E-X 4EE-X/	4aa 4ff 4cc\	.	4E-X\	de	.	4A/	de	.	4f\	de	.
=27	=27	=27	=27	=27	=27	=27	=27	=27	=27	=27	=27
*	*	*	*	*	*	*^	*	*	*	*	*
2D 2DD/	2bb- 2ff 2b-\	.	2D\	De-	.	2B-\	2ryy	De-	.	2f\	De-	.
2D-X 2DD-X/	2bbn 2aa-X 2ff\	.	2D-X\	-o	.	2Bn/	2G#X\	-o	.	2f\	-o	.
*	*	*	*	*	*	*v	*v	*	*	*	*	*
=28	=28	=28	=28	=28	=28	=28	=28	=28	=28	=28	=28
2C 2CC/	2ccc 2aan 2ff\	.	2C/	ve-	.	2c 2A\	vero	.	2f\	ve-	.
2BB- 2BBB-/	2ddd 2bb- 2ff\	.	2BB-/	-ro	.	2d 2B-X\	.	.	2f\	-ro	.
!!LO:LB:g=original
=29	=29	=29	=29	=29	=29	=29	=29	=29	=29	=29	=29
1F 1FF	2aa 2ff 2cc\	.	4F\	ge-	.	4A\	ge-	.	4c\	ge-	.
.	.	.	4F\	-ni-	.	4A\	-ni-	.	4c\	-ni-	.
.	2bb- 2gg 2dd\	.	4F\	-tum	.	4B-\	-tum	.	4d\	-tum	.
.	.	.	4F\	non	.	4B-\	non	.	4d\	non	.
=30	=30	=30	=30	=30	=30	=30	=30	=30	=30	=30	=30
1F 1FF	4.aa 4.ff 4.cc\	.	2F\	fac-	.	(4.A\	fac-	.	(4.c\	fac-	.
.	8gg 8ee 8b-\	.	.	.	.	8G/)	.	.	8B-\)	.	.
.	4ff 4cc 4a\	.	4F\	-tum	.	4F/	-tum	.	4A\	-tum	.
.	4gg 4ee 4b-\	.	4r	.	.	4r	.	.	4r	.	.
=31	=31	=31	=31	=31	=31	=31	=31	=31	=31	=31	=31
1F 1FF	2aa 2ff 2cc\	.	4F\	con-	.	4A\	con-	.	4c\	con-	.
.	.	.	4F\	-sub-	.	4A\	-sub-	.	4c\	-sub-	.
.	2bb- 2ff 2dd\	.	4F\	-stan-	.	4B-\	-stan-	.	4d\	-stan-	.
.	.	.	4F\	-ti-	.	4B-\	-ti-	.	4d\	-ti-	.
=32	=32	=32	=32	=32	=32	=32	=32	=32	=32	=32	=32
1F 1FF	4.aa 4.ff 4.cc\	.	2F\	-a-	.	(4.A/	-a-	.	(4.c\	-a-	.
.	8gg 8ee 8b-\	.	.	.	.	8G/)	.	.	8B-\)	.	.
.	4ff 4cc 4a\	.	4F\	-lem	.	4F/	-lem	.	4A\	-lem	.
.	4gg 4ee 4b-\	.	4r	.	.	4r	.	.	4r	.	.
=33	=33	=33	=33	=33	=33	=33	=33	=33	=33	=33	=33
1F 1FF	4.aa 4.ff 4.cc\	.	2F\	pa-	.	(4.A/	pa-	.	(4.c\	pa-	.
.	8gg 8ee 8b-\	.	.	.	.	8G/)	.	.	8B-\	.	.
.	4ff 4cc 4a\	.	2F\	-tri	.	4F/	.	.	4A\)	.	.
.	4gg 4ee 4b-\	.	.	.	.	4G/	-tri	.	4B-\	-tri	.
=34	=34	=34	=34	=34	=34	=34	=34	=34	=34	=34	=34
2.F 2.FF/	4.aa 4.ff 4.cc\	.	2.F\	per	.	(4.A/	per	.	(4.c\	per	.
.	8gg 8ee 8b-\	.	.	.	.	8G/)	.	.	8B-\	.	.
.	4ff 4cc 4a\	.	.	.	.	4F/	.	.	4A\)	.	.
4E-X 4EE-X/	4aa 4ff 4cc\	.	4E-X\	quem	.	4A/	quem	.	4f\	quem	.
=35	=35	=35	=35	=35	=35	=35	=35	=35	=35	=35	=35
*	*	*	*	*	*	*^	*	*	*	*	*
2D 2DD/	2bb- 2ff 2b-\	.	4.D\	om-	.	4.B-\	2ryy	om-	.	4.f\	om-	.
.	.	.	8D\	-ni-	.	8B-\	.	-ni-	.	8f\	-ni-	.
2D-X 2DD-X/	2bbn 2aa-X 2ff\	.	2D-X\	-a	.	2Bn\	2G#X\	-a	.	2f\	-a	.
*	*	*	*	*	*	*v	*v	*	*	*	*	*
!!LO:LB:g=original
=36	=36	=36	=36	=36	=36	=36	=36	=36	=36	=36	=36
1C 1CC	2ccc 2aan 2ff\	.	2C/	fac-	.	2c 2A\	fac-	.	2f\	fac-	.
.	2ee 2cc 2b- 2g\	.	2C/	-ta	.	2B-X 2G\	-ta	.	2e\	-ta	.
=37	=37	=37	=37	=37	=37	=37	=37	=37	=37	=37	=37
*	*^	*	*	*	*	*^	*	*	*	*	*
2D 2DD/	2ff/	2a 2f\	.	2D/	sunt	.	2A 2F/	2ryy	sunt	.	2f\	sunt	.
2C#X 2CC#X/	2ee/	2a 2g\	.	2C#X/	qui	.	2A/	2G\	qui	.	2e\	qui	.
=38	=38	=38	=38	=38	=38	=38	=38	=38	=38	=38	=38	=38	=38
*	*	*^	*	*	*	*	*	*	*	*	*	*	*
(>4.D (<4.DD/	4.dd/	2a/	4.f\	.	(4.D\	prop-	.	2A/	(>4.F\	prop-	.	(4.d\	prop-	.
8E 8EE/))	8cc#X/	.	8g\	.	8E\)	.	.	.	8G\)	.	.	8c#X\)	.	.
4D 4DD/	4dd 4a/	2ryy	4f\	.	4D\	-ter	.	4A/	4F\	-ter	.	4d\	-ter	.
!	!	!	!	!	!LO:SIC:v:s=4C#\	!	!	!	!	!	!	!	!	!
4C#X 4CC#X/	4ee 4a/	.	4g\	.	4C\	nos	.	4A/	4G\	nos	.	4e\	nos	.
=39	=39	=39	=39	=39	=39	=39	=39	=39	=39	=39	=39	=39	=39	=39
4.D 4.DD/	4.dd/	2a/	4.f\	.	(4.D\	ho-	.	4.A/	4.F\	ho-	.	4.d\	ho-	.
8E 8EE/	8cc#X/	.	8g\	.	8E\)	-mi-	.	8A/	8G\	-mi-	.	8c#X\	-mi-	.
4D 4DD/	4dd/	2ryy	4a 4f\	.	4D\	-nes	.	4A/	4F\	-nes	.	4d\	-nes	.
4C#X 4CC#X/	4ee/	.	4a 4g\	.	4C#X\	et	.	4A/	4G\	et	.	4e\	et	.
=40	=40	=40	=40	=40	=40	=40	=40	=40	=40	=40	=40	=40	=40	=40
4.D 4.DD/	4.dd/	2a/	4.f\	.	(4.D\	prop-	.	2A/	(>4.F\	prop-	.	(4.d\	prop-	.
8E 8EE/	8cc#X/	.	8g\	.	8E\)	.	.	.	8G\)	.	.	8c#X\)	.	.
4D 4DD/	4dd 4a/	2ryy	4f\	.	4D\	-ter	.	4A/	4F\	-ter	.	4d\	-ter	.
4D 4DD/	4bb- 4gg 4dd\	.	4ryy	.	4D\	nos-	.	4G/	4G\	nos-	.	4G/	nos-	.
*	*v	*v	*v	*	*	*	*	*v	*v	*	*	*	*	*
=41	=41	=41	=41	=41	=41	=41	=41	=41	=41	=41	=41
2D 2DD/	2aa 2ff 2dd\	.	2D/	-tram	.	2F/	-tram	.	2A\	-tram	.
2GG 2GGG/	2bb- 2gg 2dd\	.	2GG/	sa-	.	2G/	sa-	.	2B-\	sa-	.
=42	=42	=42	=42	=42	=42	=42	=42	=42	=42	=42	=42
2AA/	4.aa 4.ff 4.dd\	.	2AA/	-lu-	.	(4.F/	-lu-	.	(4.A\	-lu-	.
.	8gg 8ee 8cc#X\	.	.	.	.	8E/)	.	.	8G\)	.	.
2AA/	4ff 4dd\	.	4AA/	-tem	.	4D/	-tem	.	4F/	-tem	.
.	4gg 4ee 4cc#X\	.	4AA/	de-	.	4E/	de-	.	4G/	de-	.
!!LO:PB:g=original
=43	=43	=43	=43	=43	=43	=43	=43	=43	=43	=43	=43
4D 4DD/	4ff 4dd 4f\	.	4D/	-scen-	.	4F/	-scen-	.	4F/	-scen-	.
8C#XL 8CC#X/	8eeL 8e\	.	8C#X/L	.	.	8E/L	.	.	8E/L	.	.
8DJ 8DD/	8ffJ 8f\	.	8D/J	.	.	8F/J	.	.	8F/J	.	.
4E 4EE/	4gg 4g\	.	4E/	-dit	.	4G/	-dit	.	4G/	-dit	.
8DL 8DD/	8ffL 8f\	.	8D/L	de	.	8F/L	de	.	8F/L	de	.
8EJ 8EE/	8ggJ 8g\	.	8E/J	.	.	8G/J	.	.	8G/J	.	.
=44	=44	=44	=44	=44	=44	=44	=44	=44	=44	=44	=44
*	*^	*	*	*	*	*	*	*	*	*	*
*	*	*^	*	*	*	*	*	*	*	*	*	*
4D 4DD/	2.aa/	4ff\	2a\	.	4D/	coe-	.	4F/	coe-	.	2.A/	coe-	.
8C#XL 8CC#X/	.	8ee\L	.	.	8C#X/L	.	.	8E/L	.	.	.	.	.
8DJ 8DD/	.	8ff\J	.	.	8D/J	.	.	8F/J	.	.	.	.	.
4C# 4CC#/	.	4ee\	2a\	.	4C#/	.	.	4E/	.	.	.	.	.
8BBnL 8BBBn/	4gg/	8dd\L	.	.	8BBn/L	.	.	8D/L	.	.	4G/	.	.
8C#J 8CC#/	.	8ee\J	.	.	8C#/J	.	.	8E/J	.	.	.	.	.
*	*	*v	*v	*	*	*	*	*	*	*	*	*	*
=45	=45	=45	=45	=45	=45	=45	=45	=45	=45	=45	=45	=45
2D 2DD/	2ff 2dd/	2a\	.	2D/	-lis	.	2F/	-lis	.	2F/	-lis	.
4r	4r	4ryy	.	4r	.	.	4r	.	.	4r	.	.
4BB- 4BBB-/	4gg 4dd/	4g\	.	4BB-/	de	.	4D/	de	.	4G/	de	.
=46	=46	=46	=46	=46	=46	=46	=46	=46	=46	=46	=46	=46
!LO:SIC:v:n=2:s=1AAA	!	!	!	!	!	!	!	!	!	!	!	!
1AA 1CC	2ff/	2dd 2a\	.	1AA	coe-	.	2D/	coe-	.	2F/	coe-	.
.	2ee/	8dd\L	.	.	.	.	8D/L	.	.	2E/	.	.
.	.	8cc#X\	.	.	.	.	8C#X/	.	.	.	.	.
!	!	!	!	!	!	!	!LO:N:acc=#	!	!	!	!	!
.	.	8bn\	.	.	.	.	8BBn/	.	.	.	.	.
.	.	8cc#\J	.	.	.	.	8C#/J	.	.	.	.	.
=47	=47	=47	=47	=47	=47	=47	=47	=47	=47	=47	=47	=47
1D [<1DD	4dd/	4a 4f\	.	2.D/	-lis.	.	2.D/	-lis.	.	2.D/	-lis.	.
.	(>4d 4c 4A< 4F-<X/	4ryy	.	.	.	.	.	.	.	.	.	.
.	4d 4B- 4G</	2ryy	.	.	.	.	.	.	.	.	.	.
.	4dn 4B- 4G#<X 4Fn</	.	.	4r	.	.	4r	.	.	4r	.	.
*	*v	*v	*	*	*	*	*	*	*	*	*	*
=48	=48	=48	=48	=48	=48	=48	=48	=48	=48	=48	=48
2.D 2.DD\]	2.d 2.A< 2.F#<X/)	.	2r	.	.	2r	.	.	2r	.	.
.	.	.	4r;	.	.	4r;	.	.	4r;	.	.
!!LO:LB:g=original
=||	=||	=||	=||	=||	=||	=||	=||	=||	=||	=||	=||
!!!OMD: Andante.
!!!key: B-
*k[b-e-]	*k[b-e-]	*	*k[b-e-]	*	*	*k[b-e-]	*	*	*k[b-e-]	*	*
*B-:	*B-:	*	*B-:	*	*	*B-:	*	*	*B-:	*	*
*M3/4	*M3/4	*	*M3/4	*	*	*M3/4	*	*	*M3/4	*	*
4BB- 4BBB-/	8b-L 8d\	.	4BB-/	Et	.	8D/L	Et	.	8B-\L	Et	.
.	8ccJ 8e-\	.	.	.	.	8E-/J	.	.	8c\J	.	.
=49	=49	=49	=49	=49	=49	=49	=49	=49	=49	=49	=49
2.BB- 2.BBB-/	4.dd 4.f\	.	2BB-/	in-	.	(4.F/	in-	.	(4.d\	in-	.
.	8ee- 8g\	.	.	.	.	8G/)	.	.	8e-\)	.	.
.	4dd 4f\	.	4BB-/	-car-	.	4F/	-car-	.	4d\	-car-	.
=50	=50	=50	=50	=50	=50	=50	=50	=50	=50	=50	=50
2.BB- 2.BBB-/	2cc 2e-\	.	2BB-/	-na-	.	2E-/	-na-	.	2c\	-na-	.
.	4dd 4f/	.	4BB-/	-tus	.	4F/	-tus	.	4d\	-tus	.
=51	=51	=51	=51	=51	=51	=51	=51	=51	=51	=51	=51
2.BB- 2.BBB-/	2b- 2d/	.	2BB-/	est	.	2D/	est	.	2B-\	est	.
.	8b-L 8d/	.	4BB-/	de	.	(8D/L	de	.	(8B-\L	de	.
.	8ccJ 8e-/	.	.	.	.	8E-/J)	.	.	8c\J)	.	.
=52	=52	=52	=52	=52	=52	=52	=52	=52	=52	=52	=52
2.BB- 2.BBB-/	4.dd 4.f\	.	4.BB-/	Spi-	.	4.F/	Spi-	.	4.d\	Spi-	.
.	8ee- 8g\	.	8BB-/	-ri-	.	8G/	-ri-	.	8e-\	-ri-	.
.	4dd 4f\	.	4BB-/	-to	.	4F/	-to	.	4d\	-to	.
=53	=53	=53	=53	=53	=53	=53	=53	=53	=53	=53	=53
2.BB- 2.BBB-/	2cc 2e-/	.	2.BB-/	Sanc-	.	2E-/	Sanc-	.	2c\	Sanc-	.
.	4dd 4f\	.	.	.	.	4F/	-to	.	4d\	-to	.
=54	=54	=54	=54	=54	=54	=54	=54	=54	=54	=54	=54
4.BB- 4.BBB-/	4.b- 4.d/	.	4.BB-/	-to	.	4.D/	ex	.	4.B-\	ex	.
(8B-L 8BB-\	(8ddL 8b-\	.	(8B-\L	ex-	.	(8B-\L	ma-	.	(8d\L	Ma-	.
8A 8AA\	8ee- 8cc\	.	8A\	-ma-	.	8c\	.	.	8e-\	.	.
8A-XJ 8AA-X\)	8ffJ 8dd\)	.	8A#X\J)	.	.	8d\J)	.	.	8f\J)	.	.
=55	=55	=55	=55	=55	=55	=55	=55	=55	=55	=55	=55
2G 2GG\	2ee- 2b-\	.	2G\	-ri-	.	2B-\	-ri-	.	2e-\	-ri-	.
4F 4FF\	4dd 4b-\	.	4F\	-a	.	4B-\	-a	.	4d\	-a	.
!!LO:LB:g=original
=56	=56	=56	=56	=56	=56	=56	=56	=56	=56	=56	=56
2E- 2EE-/	2gg 2b-\	.	2D\	Vir-	.	2B-\	Vir-	.	2g\	Vir-	.
4D 4DD/	4ff 4b-\	.	4D\	-gi-	.	4B-\	-gi-	.	4f\	-gi-	.
=57	=57	=57	=57	=57	=57	=57	=57	=57	=57	=57	=57
2C#X 2CC#X/	2een 2b- 2g\	.	2C#X/	-ne	.	2B-\	-ne	.	2en\	-ne	.
4Cn 4CCn/	4ee-X 4a 4f\	.	4Cn/	et	.	4A\	et	.	4e-X\	et	.
=58	=58	=58	=58	=58	=58	=58	=58	=58	=58	=58	=58
2BB- 2BBB-/	2dd 2b- 2f\	.	4BB-/	ho-	.	4B-\	ho-	.	4d\	ho-	.
.	.	.	8BB-/	-mo	.	8B-\	-mo	.	8d\	-mo	.
.	.	.	8r	.	.	8r	.	.	8r	.	.
4AA 4AAA/	4ee- 4cc 4f\	.	4AA/	et	.	4c\	et	.	4e-\	et	.
=59	=59	=59	=59	=59	=59	=59	=59	=59	=59	=59	=59
*	*^	*	*	*	*	*	*	*	*	*	*
(4BB- 4BBB-/	2dd 2b-/	4f\	.	(4BB-/	ho-	.	2B-\	ho-	.	2d\	ho-	.
4G 4GG/)	.	4g\	.	4G\)	.	.	.	.	.	.	.	.
4E- 4EE-/	8ee-/L	8g\L	.	4E-\	-mo	.	4G/	-mo	.	8e-\L	-mo	.
.	8cc/J	8e-\J	.	.	.	.	.	.	.	8c\J	.	.
*	*v	*v	*	*	*	*	*	*	*	*	*	*
=60	=60	=60	=60	=60	=60	=60	=60	=60	=60	=60	=60
2.F 2.FF/	4.b- 4.d/	.	2F\	fac-	.	(4.B-\	fac-	.	(4.d\	fac-	.
.	8cc 8e-/	.	.	.	.	8c\)	.	.	8e-\)	.	.
.	8aL 8c/	.	4F\	-tus	.	(8A\L	-tus	.	(8c\L	-tus	.
.	8b-J 8d/	.	.	.	.	8B-\J)	.	.	8d\J)	.	.
=61	=61	=61	=61	=61	=61	=61	=61	=61	=61	=61	=61
2G 2GG/	2b- 2d/	.	2G\	est	.	2B-\	est	.	2d\	est	.
4G-X 4GG-X/	4ee- 4cc 4a/	.	4G-X\	et	.	4A/	et	.	4e-\	et	.
=62	=62	=62	=62	=62	=62	=62	=62	=62	=62	=62	=62
2F 2FF/	2dd 2b-\	.	2F\	ho-	.	2B-\	ho-	.	2d\	ho-	.
4E- 4EE-/	8ee-L 8cc 8g/	.	4E-\	-mo	.	4G/	-mo	.	(8e-\L	-mo	.
.	8ccJ 8g 8e-/	.	.	.	.	.	.	.	8c\J)	.	.
=63	=63	=63	=63	=63	=63	=63	=63	=63	=63	=63	=63
2D 2DD/	2b- 2f/	.	2D/	fac-	.	2F/	fac-	.	2B-\	fac-	.
4C 4CC/	4a 4f 4e-/	.	4C/	-tus	.	(8F/L	-tus	.	4A/	-tus	.
.	.	.	.	.	.	8E-/J)	.	.	.	.	.
!!LO:PB:g=original
=64	=64	=64	=64	=64	=64	=64	=64	=64	=64	=64	=64
2BB- 2BBB-/	2b- 2f 2d/	.	2BB-/	est	.	2D/	est	.	2B-\	est	.
4BB- 4BBB-/	4dd 4b- 4f/	.	8BB-/	cru-	.	8F/	cru-	.	8d\	cru-	.
.	.	.	8BB-/	-ci-	.	8F/	-ci-	.	8d\	-ci-	.
=65	=65	=65	=65	=65	=65	=65	=65	=65	=65	=65	=65
*	*^	*	*	*	*	*	*	*	*	*	*
2GG/	2dd 2b-/	2.d\	.	4GG/	-fi-	.	4B-\	-fi-	.	4d\	-fi-	.
.	.	.	.	4GG/	-xus	.	4B-\	-xus	.	4d\	-xus	.
4G 4GG\	4dd 4b- 4g/	.	.	8G\	e-	.	8B-\	e-	.	8d\	e-	.
.	.	.	.	8G\	-ti-	.	8B-\	-ti-	.	8d\	-ti-	.
*	*v	*v	*	*	*	*	*	*	*	*	*	*
=66	=66	=66	=66	=66	=66	=66	=66	=66	=66	=66	=66
2.C 2.CC/	2.ee- 2.cc 2.g\	.	2C/	-am	.	2G/	-am	.	2e-\	-am	.
.	.	.	4C/	pro	.	4G/	pro	.	4e-\	pro	.
=67	=67	=67	=67	=67	=67	=67	=67	=67	=67	=67	=67
*	*^	*	*	*	*	*	*	*	*	*	*
2D 2DD/	8aL 8f#X/	2.d\	.	4D\	no-	.	8F#X/L	no-	.	8A\L	no-	.
.	8b-J 8g/	.	.	.	.	.	8G/J	.	.	8B-\J	.	.
.	4a 4f#/	.	.	4D\	-bis	.	4F#/	-bis	.	4A\	-bis	.
4A 4AA/	4a/	.	.	4A\	sub	.	4A/	sub	.	4A\	sub	.
*	*v	*v	*	*	*	*	*	*	*	*	*	*
=68	=68	=68	=68	=68	=68	=68	=68	=68	=68	=68	=68
4.B- 4.BB-\	4.b-\	.	4.B-\	pon-	.	4.B-\	pon-	.	4.B-\	pon-	.
8A 8AA\	8a\	.	8A\	-ti-	.	8A\	-ti-	.	8A\	-ti-	.
8GL 8GG\	8g/L	.	8G\	-o	.	8G\	-o	.	8G\	-o	.
8AJ 8AA\	8a/J	.	8A\	pi-	.	8A\	pi-	.	8A\	pi-	.
=69	=69	=69	=69	=69	=69	=69	=69	=69	=69	=69	=69
4F#X 4FF#X/	4f#X/	.	4F#X\	-la-	.	4F#X/	-la-	.	4F#X/	-la-	.
4D 4DD/	4d/	.	4D\	-to	.	4D/	-to	.	4D/	-to	.
4r	4r	.	4r	.	.	4r	.	.	4r	.	.
=70	=70	=70	=70	=70	=70	=70	=70	=70	=70	=70	=70
2.E-X 2.EE-X/	2.e-X/	.	4E-X\	pas-	.	4E-X/	pas-	.	4E-X/	pas-	.
.	.	.	4E-\	-sus	.	4E-/	-sus	.	4E-/	-sus	.
.	.	.	4r	.	.	4r	.	.	4r	.	.
=71	=71	=71	=71	=71	=71	=71	=71	=71	=71	=71	=71
2.D 2.DD/	2.d/	.	2D\	et	.	2D/	et	.	2D/	et	.
.	.	.	4D\	se-	.	4D/	se-	.	4D/	se-	.
!!LO:LB:g=original
=72||	=72||	=72||	=72||	=72||	=72||	=72||	=72||	=72||	=72||	=72||	=72||
2C#X 2CC#X/	2c#X/	.	2C#X/	-pul-	.	2C#X/	-pul-	.	2C#X/	-pul-	.
8BBnL 8BBBn/	8Bn/L	.	8BBn/L	-tus	.	8BBn/L	-tus	.	8BBn/L	-tus	.
8C#J 8CC#/	8c#/J	.	8C#/J	.	.	8C#/J	.	.	8C#/J	.	.
=73	=73	=73	=73	=73	=73	=73	=73	=73	=73	=73	=73
2D 2DD/	2d/	.	2D/	est.	.	2D/	est.	.	2D/	est.	.
8C#XL 8CC#X/	8c#X/L	.	4r;	.	.	4r;	.	.	4r;	.	.
8DJ 8DD/	8d/J	.	.	.	.	.	.	.	.	.	.
=74	=74	=74	=74	=74	=74	=74	=74	=74	=74	=74	=74
(2D 2DD/	(<2d/	.	2.r	.	.	2.r	.	.	2.r	.	.
4r	4r	.	.	.	.	.	.	.	.	.	.
=75	=75	=75	=75	=75	=75	=75	=75	=75	=75	=75	=75
!LO:N:n=1:vis=2	!	!	!	!	!	!	!	!	!	!	!
2.D 2.DD/	2.d/	.	2.r	.	.	2.r	.	.	2.r	.	.
=76	=76	=76	=76	=76	=76	=76	=76	=76	=76	=76	=76
2GG#X 2GGG#X/)	2G#X/)	.	2.r;	.	.	2.r;	.	.	2.r;	.	.
4r;	4r;	.	.	.	.	.	.	.	.	.	.
*kcancel	*kcancel	*	*kcancel	*	*	*kcancel	*	*	*kcancel	*	*
=77||	=77||	=77||	=77||	=77||	=77||	=77||	=77||	=77||	=77||	=77||	=77||
!!!OMD: Tempo 1° Allegro
!!!key: D
*k[f#c#]	*k[f#c#]	*	*k[f#c#]	*	*	*k[f#c#]	*	*	*k[f#c#]	*	*
*D:	*D:	*	*D:	*	*	*D:	*	*	*D:	*	*
*M4/4	*M4/4	*	*M4/4	*	*	*M4/4	*	*	*M4/4	*	*
*met(c)	*met(c)	*	*met(c)	*	*	*met(c)	*	*	*met(c)	*	*
!	!	!LO:DY:rj	!	!	!LO:DY:b:rj	!	!	!LO:DY:b:rj	!	!	!LO:DY:b:rj
4A 4AA\	4aa 4a\	ff	4A\	Et	ff	4A\	Et	ff	4A/	Et	ff
8G#XL 8GG#X\	8gg#XL 8g#X\	.	8G#X\	re-	.	8G#X\	re-	.	8G#X/	re-	.
8AJ 8AA\	8aaJ 8a\	.	8A\	-su-	.	8A\	-su-	.	8A/	-su-	.
4B 4BB\	4bb 4b\	.	4B\	-re-	.	4B\	-re-	.	4B\	-re-	.
8AL 8AA\	8aaL 8a\	.	8A\L	-xit	.	8A\L	-xit	.	8A\L	-xit	.
8BJ 8BB\	8bbJ 8b\	.	8B\J	.	.	8B\J	.	.	8B\J	.	.
=78	=78	=78	=78	=78	=78	=78	=78	=78	=78	=78	=78
2c# 2C#\	2ccc# 2cc#\	.	4.c#\	ter-	.	4.c#\	ter-	.	4.c#\	ter-	.
.	.	.	8c#\	-ti-	.	8c#\	-ti-	.	8c#\	-ti-	.
2A 2AA\	2aa 2a\	.	2A\	-a	.	2A\	-a	.	2A/	-a	.
=79	=79	=79	=79	=79	=79	=79	=79	=79	=79	=79	=79
4B 4BB\	4bb 4b\	.	4B\	di-	.	4B\	di-	.	4B\	di-	.
8AL 8AA\	8aaL 8a\	.	8A\	-e	.	8A\	-e	.	8A\	-e	.
8BJ 8BB\	8bbJ 8b\	.	8B\	se-	.	8B\	se-	.	8B\	se-	.
4c# 4C#\	4ccc# 4cc#\	.	4c#\	-cun-	.	4c#\	-cun-	.	4c#\	-cun-	.
8BL 8BB\	8bbL 8b\	.	8B\	-dum	.	8B\	-dum	.	8B\	-dum	.
8c#J 8C#\	8ccc#J 8cc#\	.	8c#\	scri-	.	8c#\	scri-	.	8c#\	scri-	.
!!LO:LB:g=original
=80	=80	=80	=80	=80	=80	=80	=80	=80	=80	=80	=80
2d 2D\	2ddd 2dd\	.	2d\	-ptu-	.	2d\	-ptu-	.	2d\	-ptu-	.
2B 2BB\	2bb 2b\	.	2B\	-ras	.	2B\	-ras	.	2B\	-ras	.
=81	=81	=81	=81	=81	=81	=81	=81	=81	=81	=81	=81
4c# 4C#\	4ccc# 4cc#\	.	4c#\	et	.	4c#\	et	.	4c#\	et	.
8BL 8BB\	8bbL 8b\	.	8B\L	a-	.	8B\L	a-	.	8B\L	a-	.
8c#J 8C#\	8ccc#J 8cc#\	.	8c#\J	.	.	8c#\J	.	.	8c#\J	.	.
4d 4D\	4ddd 4dd\	.	4d\	-scen-	.	4d\	-scen-	.	4d\	-scen-	.
8c#L 8C#\	8ccc#L 8cc#\	.	8c#\	-dit	.	8c#\	-dit	.	8c#\	-dit	.
8dJ 8D\	8dddJ 8dd\	.	8d\	in	.	8d\	in	.	8d\	in	.
=82	=82	=82	=82	=82	=82	=82	=82	=82	=82	=82	=82
2A 2AA\	2eee 2ccc# 2aa\	.	2A\	ce-	.	2c#\	ce-	.	2e\	ce-	.
2A 2AA\	2fff# 2ddd 2aa\	.	2A\	-lum	.	2d\	-lum	.	2f#\	-lum	.
=83	=83	=83	=83	=83	=83	=83	=83	=83	=83	=83	=83
2A 2AA\	4eee 4ccc#\	.	2A\	se-	.	(4.c#\	se-	.	(4.e\	se-	.
.	4ddd 4bb\	.	.	.	.	.	.	.	.	.	.
.	.	.	.	.	.	8B\)	.	.	8d\)	.	.
2A 2AA\	4ccc# 4aa\	.	4A\	-det	.	4A\	-det	.	4c#\	-det	.
.	4ddd 4bb\	.	4A\	ad	.	4B\	ad	.	4d\	ad	.
=84	=84	=84	=84	=84	=84	=84	=84	=84	=84	=84	=84
2A 2AA\	4eee 4ccc#\	.	2A\	dex-	.	(4c#\	dex-	.	(4e\	dex-	.
.	4ddd 4bb\	.	.	.	.	4B\)	.	.	4d\)	.	.
4E 4EE/	4ccc# 4aa\	.	4E\	-te-	.	4A\	-te-	.	4c#\	-te-	.
4E#X 4EE#X/	4bb 4gg#X\	.	4E\	-ram	.	4G\	-ram	.	4B\	-ram	.
=85	=85	=85	=85	=85	=85	=85	=85	=85	=85	=85	=85
2F# 2FF#/	2aa 2cc# 2a\	.	(2F#\	pa-	.	(2A\	pa-	.	(2A\	pa-	.
2En 2EEn/	4.ccc# 4.aa 4.ee\	.	2E\)	.	.	4.A\	.	.	4.c#\	.	.
.	8bb 8gg#X 8dd\	.	.	.	.	8G\)	.	.	8B\)	.	.
=86	=86	=86	=86	=86	=86	=86	=86	=86	=86	=86	=86
[>2A [<2AA\	[>2aa [>2ee [>2cc# [<2a\	.	2A\	-tris	.	2A\	-tris	.	2A\	-tris	.
8A] 8AA\]	8aa] 8ee] 8cc#] 8a\]	.	8r	.	.	8r	.	.	8r	.	.
*8ba	*	*	*	*	*	*	*	*	*	*	*
8AAA/L	8aL 8A/	.	8AA/	et	.	8A\	et	.	8A\	et	.
8BBB/	8b 8B/	.	8BB/	i-	.	8B\	i-	.	8B\	i-	.
8CC#/J	8cc#J 8c#/	.	8C#/	-te-	.	8c#\	-te-	.	8c#\	-te-	.
!!LO:PB:g=original
=87	=87	=87	=87	=87	=87	=87	=87	=87	=87	=87	=87
4DD\	4dd 4d/	.	4D\	-rum	.	4d\	-rum	.	4d\	-rum	.
8CC#\L	8cc#L 8c#/	.	8C#\L	ven-	.	8c#\L	ven-	.	8c#\L	ven-	.
8DD\J	8ddJ 8d/	.	8D\J	.	.	8d\J	.	.	8d\J	.	.
4EE\	4ee 4e\	.	4E\	-tu-	.	4e\	-tu-	.	4e\	-tu-	.
8DD\L	8ddL 8d/	.	8D\L	-rus	.	8d\L	-rus	.	8d\L	-rus	.
8EE\J	8eeJ 8e/	.	8E\J	.	.	8e\J	.	.	8e\J	.	.
=88	=88	=88	=88	=88	=88	=88	=88	=88	=88	=88	=88
*	*	*	*	*	*	*^	*	*	*	*	*
2FF#\	2ff# 2f#\	.	2F#\	est	.	2f#\	2ryy	est	.	2f#\	est	.
!	!	!	!	!	!	!	!	!	!	!LO:SIC:v:l:s=cum	!	!
2DD/	2ff# 2dd 2a\	.	2D\	cum	.	2d/	2A\	cum	.	2f#\	com	.
=89	=89	=89	=89	=89	=89	=89	=89	=89	=89	=89	=89	=89
2CC#/	2gg 2ee 2g\	.	4.C#/	glo-	.	4.e/	4.A\	glo-	.	4.g\	glo-	.
.	.	.	8C#/	-ri-	.	8e/	8A\	-ri-	.	8g\	-ri-	.
4DD/	4ff# 4dd 4a\	.	4D/	-a	.	4d/	4A\	-a	.	4f#\	-a	.
4BBB/	4ff# 4dd 4b\	.	4BB/	cum	.	4d/	4F#\	cum	.	4f#\	cum	.
=90	=90	=90	=90	=90	=90	=90	=90	=90	=90	=90	=90	=90
*	*^	*	*	*	*	*	*	*	*	*	*	*
2AAA#X/	2ff#/	2ee 2cc#\	.	4.AA#X/	glo-	.	4.e/	4.F#\	glo-	.	4.f#\	glo-	.
.	.	.	.	8AA#/	-ri-	.	8e/	8F#\	-ri-	.	8f#\	-ri-	.
2BBB/	2ff#/	2dd 2b\	.	2BB/	-a	.	2d/	2F#\	-a	.	2f#\	-a	.
*	*	*	*	*	*	*	*v	*v	*	*	*	*	*
=91	=91	=91	=91	=91	=91	=91	=91	=91	=91	=91	=91	=91
!	!	!LO:N:vis=2	!	!	!	!	!	!	!	!	!	!
4GG\	4ee/	2.b\	.	4G\	ju-	.	2B\	judi-	.	4e\	ju-	.
4DD#X\	4ff#/	.	.	4D\	-di-	.	.	.	.	4f#\	-di-	.
4EE\	4gg/	.	.	4E/	-ca-	.	4B\	-ca-	.	4g\	-ca-	.
4GG\	4ee/	4b 4g\	.	4G 4GG\	-re	.	4G/	-re	.	4e\	-re	.
*	*v	*v	*	*	*	*	*	*	*	*	*	*
=92	=92	=92	=92	=92	=92	=92	=92	=92	=92	=92	=92
1AA 1AAA	2dd 2a 2f#/	.	(>1A 1AA	vi-	.	(>2F#/	vi-	.	(2d\	vi-	.
.	4ff# 4dd 4a\	.	.	.	.	4.A/	.	.	4.f#\	.	.
.	4ee 4cc# 4g\	.	.	.	.	.	.	.	.	.	.
.	.	.	.	.	.	8G/)	.	.	8e\)	.	.
=93	=93	=93	=93	=93	=93	=93	=93	=93	=93	=93	=93
2DD\	2dd 2a 2f#/	.	2D/)	-vos	.	2F#/	-vos	.	2d\	-vos	.
*X8ba	*	*	*	*	*	*	*	*	*	*	*
4r	4r	.	4r	.	.	4r	.	.	4r	.	.
4C# 4CC#/	4c#/	.	4C#/	et	.	4c#\	et	.	4c#\	et	.
!!LO:LB:g=original
=94	=94	=94	=94	=94	=94	=94	=94	=94	=94	=94	=94
2D 2DD/	2d/	.	[1D	mor-	.	[1d	mor-	.	[1d	mor-	.
2Fn 2FFn/	2fn/	.	.	.	.	.	.	.	.	.	.
=95	=95	=95	=95	=95	=95	=95	=95	=95	=95	=95	=95
1BB-X 1BBB-X	1b-X 1B-X	.	2D/]	.	.	2d\]	.	.	2d\]	.	.
.	.	.	2BB-X/	-tu-	.	2B-X\	-tu-	.	2B-X\	-tu-	.
=96	=96	=96	=96	=96	=96	=96	=96	=96	=96	=96	=96
2AA 2AAA/	2a 2A/	.	2AA/	-os	.	2A\	-os	.	2A\	-os	.
2A 2AA/	4cc# 4a 4e/	.	4A\	cu-	.	4A\	cu-	.	4c#\	cu-	.
.	4ee 4cc# 4a/	.	4A\	-jus	.	4c#\	-jus	.	4e\	-jus	.
=97	=97	=97	=97	=97	=97	=97	=97	=97	=97	=97	=97
2A 2AA/	4ff# 4dd 4a\	.	4A\	re-	.	4d\	re-	.	4f#\	re-	.
.	8eeL 8cc#\	.	8A\	-gni	.	8c#\	-gni	.	8e\	-gni	.
.	8ddJ 8b\	.	8A\	non	.	8B\	non	.	8d\	non	.
4A 4AA/	4cc# 4a\	.	4A\	e-	.	4A\	e-	.	4c#\	e-	.
4D 4DD/	4dd 4b 4f#\	.	4D\	-ris	.	4B\	-rit	.	4d\	-rit	.
=98	=98	=98	=98	=98	=98	=98	=98	=98	=98	=98	=98
1E 1EE	1cc# 1a 1e	.	1E	fi-	.	1A	fi-	.	1c#	fi-	.
=99	=99	=99	=99	=99	=99	=99	=99	=99	=99	=99	=99
*	*^	*	*	*	*	*	*	*	*	*	*
*	*	*^	*	*	*	*	*	*	*	*	*	*
1E 1EE	1b 1e	2a/	2.ryy	.	1E	.	.	2A\	.	.	1B	.	.
.	.	2g#X/	.	.	.	.	.	2G#X\	.	.	.	.	.
.	.	.	4d\	.	.	.	.	.	.	.	.	.	.
*	*v	*v	*v	*	*	*	*	*	*	*	*	*	*
=100	=100	=100	=100	=100	=100	=100	=100	=100	=100	=100	=100
[>2A [<2AA\	[>2a [<2e [<2c#/	.	2AA/	-nis	.	2A/	-nis	.	2A/	-nis	.
8A] 8AA\]	8a] 8e] 8c#/]	.	2r	.	.	2r	.	.	2r	.	.
8AAL 8AAA/	8aL 8A/	.	.	.	.	.	.	.	.	.	.
*8ba	*	*	*	*	*	*	*	*	*	*	*
8BBB/	8b 8B/	.	.	.	.	.	.	.	.	.	.
8CC#/J	8cc#J 8c#/	.	.	.	.	.	.	.	.	.	.
=101||	=101||	=101||	=101||	=101||	=101||	=101||	=101||	=101||	=101||	=101||	=101||
!!!key: d
*k[b-]	*k[b-]	*	*k[b-]	*	*	*k[b-]	*	*	*k[b-]	*	*
*d:	*d:	*	*d:	*	*	*d:	*	*	*d:	*	*
!	!	!	!	!	!	!	!	!	!LO:TX:a:Bi:t=minore.	!	!
4DD\	4dd 4d\	.	4D\	Et	.	4D/	Et	.	4D/	Et	.
8CC#X\L	8cc#XL 8c#X\	.	8C#X\L	in	.	8C#X/L	in	.	8C#X/L	in	.
8DD\J	8ddJ 8d\	.	8D\J	.	.	8D/J	.	.	8D/J	.	.
4EE\	4ee 4e\	.	4E\	spi-	.	4E/	spi-	.	4E/	spi-	.
8DD\L	8ddL 8d\	.	8D\	-ri-	.	8D/	-ri-	.	8D/	-ri-	.
8EE\J	8eeJ 8e\	.	8E\	-tum	.	8E/	-tum	.	8E/	-tum	.
!!LO:LB:g=original
=102	=102	=102	=102	=102	=102	=102	=102	=102	=102	=102	=102
2FF\	2ff 2f/	.	2F\	Sanc-	.	2F/	Sanc-	.	2F/	Sanc-	.
2DD\	2dd 2d/	.	2D\	-tum	.	2D/	-tum	.	2D/	-tum	.
=103	=103	=103	=103	=103	=103	=103	=103	=103	=103	=103	=103
4EE\	4ee 4e\	.	4E\	do-	.	4E/	do-	.	4E/	do-	.
8DD\L	8ddL 8d\	.	8D\	-mi-	.	8D/	-mi-	.	8D/	-mi-	.
8EE\J	8eeJ 8e\	.	8E\	-num	.	8E/	-num	.	8E/	-num	.
4FF\	4ff 4f\	.	4F\	et	.	4F/	et	.	4F/	et	.
8EE\L	8eeL 8e\	.	8E\L	vi-	.	8E/L	vi-	.	8E/L	vi-	.
8FF\J	8ffJ 8f\	.	8F\J	.	.	8F/J	.	.	8F/J	.	.
=104	=104	=104	=104	=104	=104	=104	=104	=104	=104	=104	=104
2GG\	2gg 2g/	.	2A\	-vi-	.	2G/	-vi-	.	2G/	-vi-	.
!	!	!	!LO:SIC:v:l:s=-fi-	!	!	!LO:SIC:v:l:s=-fi-	!	!	!LO:SIC:v:l:s=-fi-	!	!
2EE\	2ee 2e/	.	2E\	-vi-	.	2E/	-vi-	.	2E/	-vi-	.
=105	=105	=105	=105	=105	=105	=105	=105	=105	=105	=105	=105
4FF\	4ff 4f\	.	4F\	-can-	.	4F/	-can-	.	4F/	-can-	.
!	!	!	!LO:SIC:v:l:s=-tem	!	!	!LO:SIC:v:l:s=-tem	!	!	!LO:SIC:v:l:s=-tem	!	!
8EE\L	8eeL 8e\	.	8E\L	-ten	.	8E/L	-ten	.	8E/L	-ten	.
8FF\J	8ffJ 8f\	.	8F\J	.	.	8F/J	.	.	8F/J	.	.
4GG\	4gg 4g\	.	4G\	qui	.	4G/	qui	.	4G/	qui	.
8FF\L	8ffL 8f\	.	8F\L	ex	.	8F/L	ex	.	8F/L	ex	.
8GG\J	8ggJ 8g\	.	8G\J	.	.	8G/J	.	.	8G/J	.	.
=106	=106	=106	=106	=106	=106	=106	=106	=106	=106	=106	=106
2AA\	2aa 2a\	.	2A\	pa-	.	2A/	pa-	.	2A/	pa-	.
2FF\	2ff 2f\	.	2F\	-tre	.	2F/	-tre	.	2F/	-tre	.
=107	=107	=107	=107	=107	=107	=107	=107	=107	=107	=107	=107
4BB-\	4bb- 4b-\	.	4B-\	fi-	.	4B-\	fi-	.	4B-/	fi-	.
4GG\	4gg 4g\	.	4G\	-li-	.	4G/	-li-	.	4G/	-li-	.
4EE\	4ee 4e\	.	4E\	-o-	.	4E/	-o-	.	4E/	-o-	.
8AA\L	8aaL 8a\	.	8A\	-que	.	8A\	-que	.	8A/	-que	.
8GG\J	8ggJ 8g\	.	8G\	pro-	.	8G\	pro-	.	8G/	pro-	.
=108	=108	=108	=108	=108	=108	=108	=108	=108	=108	=108	=108
4.FF\	4.ff 4.f\	.	(4.F\	-ce-	.	(4.F/	-ce-	.	(4.F/	-ce-	.
8EE\	8ee 8e\	.	8E\)	.	.	8E/)	.	.	8E/)	.	.
4DD\	4dd 4d\	.	4D\	-dit	.	4D/	-dit	.	4D/	-dit	.
8AA\L	8aaL 8a\	.	8A\	qui	.	8A/	qui	.	8A/	qui	.
8GG\J	8ggJ 8g\	.	8G\	cum	.	8G/	cum	.	8G/	cum	.
=109	=109	=109	=109	=109	=109	=109	=109	=109	=109	=109	=109
4.FF\	4.ff 4.f\	.	(4.F\	pa-	.	(4.F/	pa-	.	(4.F/	pa-	.
8EE\	8ee 8e\	.	8E\)	.	.	8E/)	.	.	8E/)	.	.
4DD\	4dd 4d\	.	4D\	-tre	.	4D/	-tre	.	4D/	-tre	.
8AA\L	8aaL 8a\	.	8A\L	et	.	8A/L	et	.	8A/L	et	.
8GG\J	8ggJ 8g\	.	8G\J	.	.	8G/J	.	.	8G/J	.	.
*X8ba	*	*	*	*	*	*	*	*	*	*	*
!!LO:PB:g=original
=110	=110	=110	=110	=110	=110	=110	=110	=110	=110	=110	=110
4.F\	4.ff 4.f\	.	(4.F\	fi-	.	(4.F/	fi-	.	(4.F/	fi-	.
8E\	8ee 8e\	.	8E\)	.	.	8E/)	.	.	8E/)	.	.
4D\	4dd 4d\	.	4D\	-lis	.	4D/	-lis	.	4D/	-lis	.
4BB- 4BBB-/	4gg 4g\	.	8BB-/	si-	.	8D/	si-	.	8G/	si-	.
.	.	.	8BB-/	-mul	.	8D/	-mul	.	8G/	-mul	.
=111	=111	=111	=111	=111	=111	=111	=111	=111	=111	=111	=111
*	*^	*	*	*	*	*	*	*	*	*	*
1AA 1AAA	2ff/	2.dd 2.a\	.	4AA/	a-	.	4D/	a-	.	4F/	a-	.
.	.	.	.	4AA/	-do-	.	4D/	-do-	.	4F/	-do-	.
.	2ee/	.	.	2AA/	-ra-	.	(>4D/	-ra-	.	2E/	-ra-	.
.	.	8cc#XL 8a\	.	.	.	.	4C#X/)	.	.	.	.	.
.	.	8g\J	.	.	.	.	.	.	.	.	.	.
*	*v	*v	*	*	*	*	*	*	*	*	*	*
=112	=112	=112	=112	=112	=112	=112	=112	=112	=112	=112	=112
2D 2DD/	2dd 2a 2f\	.	2D\	-tur	.	2D/	-tur	.	2D/	-tur	.
2C 2CC/	2ee 2cc 2b- 2g\	.	8r	.	.	8r	.	.	8r	.	.
.	.	.	8C\	et	.	8Cn/	et	.	8C/	et	.
.	.	.	8D\	con-	.	8D/	con-	.	8D/	con-	.
.	.	.	8E\	-glo-	.	8E/	-glo-	.	8E/	-glo-	.
=113	=113	=113	=113	=113	=113	=113	=113	=113	=113	=113	=113
*	*^	*	*	*	*	*	*	*	*	*	*
2F 2FF/	4ff/	2cc 2a\	.	(4F\	-ri-	.	(>4F/	-ri-	.	(>4F/	-ri-	.
.	8ee/L	.	.	8E\L	.	.	8E/L	.	.	8E/L	.	.
.	8ff/J	.	.	8F\J)	.	.	8F/J)	.	.	8F/J)	.	.
2E 2EE/	4gg/	2cc 2g\	.	(4G\	-fi-	.	(>4G/	-fi-	.	(>4G/	-fi-	.
.	8ff/L	.	.	8F\L	.	.	8F/L	.	.	8F/L	.	.
.	8gg/J	.	.	8G\J)	.	.	8G/J)	.	.	8G/J)	.	.
=114	=114	=114	=114	=114	=114	=114	=114	=114	=114	=114	=114	=114
2D 2DD/	2aa/	2ff 2a\	.	2A\	-ca-	.	2A/	-ca-	.	2A/	-ca-	.
2D 2DD/	2ff/	2dd 2a\	.	2F\	-tur	.	2F/	-tur	.	2F/	-tur	.
=115	=115	=115	=115	=115	=115	=115	=115	=115	=115	=115	=115	=115
[>1C [<1CC	4gg/	2ee 2cc\	.	4G\	qui	.	4G/	qui	.	4G/	qui	.
.	8ff/L	.	.	8F\L	lo-	.	8F/L	lo-	.	8F/L	lo-	.
.	8gg/J	.	.	8G\J	.	.	8G/J	.	.	8G/J	.	.
!	!	!	!	!LO:SIC:v:l:s=-cu-	!	!	!LO:SIC:v:l:s=-cu-	!	!	!LO:SIC:v:l:s=-cu-	!	!
.	4aa/	2ff 2cc\	.	4A\	-cul-	.	4A/	-cul-	.	4A/	-cul-	.
.	8gg/L	.	.	8G\L	-tus	.	8G/L	-tus	.	8G/L	-tus	.
.	8aa/J	.	.	8A\J	.	.	8A/J	.	.	8A/J	.	.
*	*v	*v	*	*	*	*	*	*	*	*	*	*
=116	=116	=116	=116	=116	=116	=116	=116	=116	=116	=116	=116
1C] 1CC]	2bb- 2gg 2cc\	.	2B-\	est	.	2B-\	est	.	2B-\	est	.
.	2gg 2ee 2cc\	.	4.G\	per	.	4.G/	per	.	4.G/	per	.
.	.	.	8F\	pro-	.	8G/	pro-	.	8G/	pro-	.
!!LO:LB:g=original
=117	=117	=117	=117	=117	=117	=117	=117	=117	=117	=117	=117
*	*^	*	*	*	*	*	*	*	*	*	*
1F 1FF	4aa/	2ff 2cc\	.	4A\	-phe-	.	4A/	-phe-	.	4A/	-phe-	.
.	8gg/L	.	.	8G\L	-tas	.	8G/	-tas	.	8G/	-tas	.
.	8aa/J	.	.	8A\J	et	.	8A/	et	.	8A/	et	.
.	4bb-/	2gg 2cc\	.	4B-\	u-	.	4B-/	u-	.	4B-/	u-	.
.	8aa/L	.	.	8A\L	-nam	.	8A/L	-nam	.	8A/L	-nam	.
.	8bb-/J	.	.	8B-\J	.	.	8B-/J	.	.	8B-/J	.	.
*	*v	*v	*	*	*	*	*	*	*	*	*	*
=118	=118	=118	=118	=118	=118	=118	=118	=118	=118	=118	=118
1E-X 1EE-X	2ccc 2aa 2cc\	.	2c\	Sanc-	.	2c\	Sanc-	.	2c\	Sanc-	.
.	2aa 2ff 2cc\	.	4.A\	-tam	.	4.A/	-tam	.	4.A/	-tam	.
.	.	.	8A\	Ca-	.	8A/	Ca-	.	8A/	Ca-	.
=119	=119	=119	=119	=119	=119	=119	=119	=119	=119	=119	=119
4D 4DD/	4ddd 4aa 4ff#X 4dd\	.	4d\	-to-	.	4d\	-to-	.	4d\	-to-	.
4G 4GG/	4bb- 4gg 4dd\	.	4B-\	-li-	.	4B-\	-li-	.	4B-\	-li-	.
2C 2CC/	4gg 4een 4cc\	.	4G\	-cam	.	4G/	-cam	.	4G/	-cam	.
.	4ccc 4gg 4ee\	.	8c\L	et	.	8c\L	et	.	8c\L	et	.
.	.	.	8B-\J	.	.	8B-\J	.	.	8B-\J	.	.
=120	=120	=120	=120	=120	=120	=120	=120	=120	=120	=120	=120
2F 2FF/	4.aa 4.ff 4.cc\	.	4.A\	a-	.	4.A\	a-	.	4.A/	a-	.
.	8gg 8ee 8b-\	.	8G\	-po-	.	8G/	-po-	.	8G/	-po-	.
4F 4FF/	4ff 4cc 4a\	.	4F\	-sto-	.	4F/	-sto-	.	4F/	-sto-	.
4D 4DD/	4bb- 4ff 4b-\	.	4D\	-li-	.	4F/	-li-	.	4B-\	-li-	.
=121	=121	=121	=121	=121	=121	=121	=121	=121	=121	=121	=121
*	*^	*	*	*	*	*	*	*	*	*	*
*	*	*^	*	*	*	*	*	*	*	*	*	*
!	!	!LO:N:n=1:vis=2	!	!	!	!	!	!	!	!	!	!	!
1C 1CC	2aa/	2.ff 2.cc\	2ryy	.	4C/	-cam	.	4F/	-cam	.	4A/	-cam	.
.	.	.	.	.	4C/	Ex-	.	4F/	Ex-	.	4A/	Ex-	.
.	2gg/	.	4ff\	.	4C/	-cle-	.	4F/	-cle-	.	4G/	-cle-	.
.	.	8eeL 8cc\	4ryy	.	4C/	-si-	.	4E/	-si-	.	4G/	-si-	.
.	.	8b-\J	.	.	.	.	.	.	.	.	.	.	.
*	*v	*v	*v	*	*	*	*	*	*	*	*	*	*
=122	=122	=122	=122	=122	=122	=122	=122	=122	=122	=122	=122
2F 2FF\	2ff 2cc 2a\	.	2F\	-am	.	2F/	-am	.	2F/	-am	.
2E 2EE/	2gg 2cc 2b-\	.	4r	.	.	4r	.	.	4r	.	.
.	.	.	4E\	con-	.	4G/	con-	.	4c\	con-	.
=123	=123	=123	=123	=123	=123	=123	=123	=123	=123	=123	=123
[>1F [<1FF	2aa 2ff 2cc 2a\	.	2F\	-fi-	.	2A\	-fi-	.	2c\	-fi-	.
.	2bb- 2ff 2dd\	.	4F\	-te-	.	4B-\	-te-	.	4d\	-te-	.
.	.	.	4F\	-or	.	4B-\	-or	.	4d\	-or	.
!!LO:LB:g=original
=124	=124	=124	=124	=124	=124	=124	=124	=124	=124	=124	=124
1F_ 1FF_	4.aa 4.ff 4.cc\	.	2F\	u-	.	(4.A/	u-	.	(4.c\	u-	.
.	8gg 8ee 8b-\	.	.	.	.	8G/)	.	.	8B-\)	.	.
.	4ff 4cc 4a\	.	4F\	-nam	.	4F/	-nam	.	4A\	-nam	.
.	4gg 4ee 4b-\	.	4F\	Bap-	.	4G/	Bap-	.	4B-\	Bap-	.
=125	=125	=125	=125	=125	=125	=125	=125	=125	=125	=125	=125
1F_ 1FF_	2aa 2ff 2cc 2a\	.	4F\	-tis-	.	4A\	-tis-	.	4c\	-tis-	.
.	.	.	4F\	-ma	.	4A\	-ma	.	4c\	-ma	.
.	2bb- 2ff 2dd\	.	4F\	in	.	4B-\	in	.	4d\	in	.
.	.	.	4F\	re-	.	4B-\	re-	.	4d\	re-	.
=126	=126	=126	=126	=126	=126	=126	=126	=126	=126	=126	=126
1F_ 1FF_	4.aa 4.ff 4.cc\	.	2F\	-mis-	.	(4.A/	-mis-	.	(4.c\	-mis-	.
.	8gg 8ee 8b-\	.	.	.	.	8G/)	.	.	8B-\)	.	.
.	4ff 4cc 4a\	.	2F\	-si-	.	(4F/	-si-	.	(4A\	-si-	.
.	4gg 4ee 4b-\	.	.	.	.	4G/)	.	.	4B-\)	.	.
=127	=127	=127	=127	=127	=127	=127	=127	=127	=127	=127	=127
2.F] 2.FF/]	4.aa 4.ff 4.cc\	.	2.F\	-o-	.	(4.A/	-o-	.	(4.c\	-o-	.
.	8gg 8ee 8b-\	.	.	.	.	8G/)	.	.	8B-\)	.	.
.	4ff 4cc 4a\	.	.	.	.	(4F/	-nem	.	(4A\	-nem	.
4E-X 4EE-X/	4aa 4ff 4cc\	.	4E-X\	-nem	.	4A/)	.	.	4f\)	.	.
=128	=128	=128	=128	=128	=128	=128	=128	=128	=128	=128	=128
2D 2DD/	2bb- 2ff 2b-\	.	2D\	pec-	.	2B-\	pec-	.	2f\	pec-	.
2D-X 2DD-X/	2bbn 2aa-X 2ff\	.	2D-X\	-ca-	.	2Bn 2G#X\	-ca-	.	2f\	-ca-	.
=129	=129	=129	=129	=129	=129	=129	=129	=129	=129	=129	=129
2C 2CC/	2ccc 2aan 2ff\	.	2C/	-to-	.	2c 2A\	-to-	.	2f\	-to-	.
2BB- 2BBB-/	2ddd 2bb- 2ff\	.	2BB-/	-rum	.	2d 2B-X\	-rum	.	2f\	-rum	.
=130	=130	=130	=130	=130	=130	=130	=130	=130	=130	=130	=130
1F 1FF	2aa 2ff 2cc\	.	2F\	et	.	2A\	et	.	2c\	et	.
.	2bb- 2gg 2dd\	.	2F\	ex-	.	2B-\	ex-	.	2d\	ex-	.
!!LO:PB:g=original
=131	=131	=131	=131	=131	=131	=131	=131	=131	=131	=131	=131
1F 1FF	4.aa 4.ff 4.cc\	.	2F\	-pec-	.	(4.A/	-pec-	.	(4.c\	-pec-	.
.	8gg 8ee 8b-\	.	.	.	.	8G/)	.	.	8B-\)	.	.
.	4ff 4cc 4a\	.	2F\	-to	.	(4F/	-to	.	(4A\	-to	.
.	4gg 4ee 4b-\	.	.	.	.	4G/)	.	.	4B-\)	.	.
=132	=132	=132	=132	=132	=132	=132	=132	=132	=132	=132	=132
1F 1FF	2aa 2ff 2cc\	.	4F\	re-	.	4A/	re-	.	4c\	re-	.
.	.	.	4F\	-su-	.	4A/	-su-	.	4c\	-su-	.
.	2bb- 2ff 2dd\	.	4F\	-re-	.	4B-\	-re-	.	4d\	-re-	.
.	.	.	4F\	-cti-	.	4B-\	-cti-	.	4d\	-cti-	.
=133	=133	=133	=133	=133	=133	=133	=133	=133	=133	=133	=133
2.F 2.FF/	4.aa 4.ff 4.cc\	.	2.F\	-o-	.	(4.A/	-o-	.	(4.c\	-o-	.
.	8gg 8ee 8b-\	.	.	.	.	8G/)	.	.	8B-\)	.	.
.	4ff 4cc 4a\	.	.	.	.	(4F/	-nem	.	(4A\	-nem	.
!LO:N:vis=8	!	!	!	!	!	!	!	!	!	!	!
4E-X 4EE-X/	4aa 4ff 4cc\	.	4E-X\	-nem	.	4A\)	.	.	4f\)	.	.
=134	=134	=134	=134	=134	=134	=134	=134	=134	=134	=134	=134
*	*	*	*	*	*	*^	*	*	*	*	*
2D 2DD/	2bb- 2ff 2b-\	.	2D/	mor-	.	2B-/	2B-\	mor-	.	2f\	mor-	.
2D-X 2DD-X/	2bbn 2aa-X 2ff\	.	2D-X/	-tu-	.	2Bn/	2G#X\	-tu-	.	2f\	-tu-	.
=135	=135	=135	=135	=135	=135	=135	=135	=135	=135	=135	=135	=135
1C 1CC	2ccc 2aan 2ff\	.	1C	-o-	.	2c/	2A\	-o-	.	2f\	-o-	.
.	2ee 2cc 2b- 2g\	.	.	.	.	2B-X/	2Gn\	.	.	2e\	.	.
=136	=136	=136	=136	=136	=136	=136	=136	=136	=136	=136	=136	=136
2D 2DD/	2ff 2a 2f\	.	2D/	-rum	.	2A/	2F\	-rum	.	2f\	-rum	.
2C#X 2CC#X/	2ee 2a 2g\	.	2C#X/	Et	.	2A/	2G\	Et	.	2e\	Et	.
=137	=137	=137	=137	=137	=137	=137	=137	=137	=137	=137	=137	=137
*	*^	*	*	*	*	*	*	*	*	*	*	*
*	*	*^	*	*	*	*	*	*	*	*	*	*	*
4.D 4.DD/	4.dd/	2a/	4.f\	.	4.D/	vi-	.	2A/	4.F\	vi-	.	4.d\	vi-	.
8E 8EE/	8cc#X/	.	8g\	.	8E/	-tam	.	.	8G\	.	.	8c#X\	-tam	.
4D 4DD/	4dd/	2ryy	4a 4f\	.	4D/	ven-	.	4A/	4F\	-tam	.	4d\	ven-	.
4C#X 4CC#X/	4ee/	.	4a 4g\	.	4C#X/	.	.	4A/	4G\	ven-	.	4e\	.	.
*	*v	*v	*v	*	*	*	*	*v	*v	*	*	*	*	*
!!LO:LB:g=original
=138	=138	=138	=138	=138	=138	=138	=138	=138	=138	=138	=138
*	*^	*	*	*	*	*^	*	*	*	*	*
*	*	*^	*	*	*	*	*	*	*	*	*	*	*
*8ba	*	*	*	*	*	*	*	*	*	*	*	*	*	*
4.DD/	(>4.dd/	2a/	4.f\	.	(4.D\	-tu-	.	2A/	(>4.F\	-tu-	.	(4.d\	-tu-	.
8EE/	8cc#X/)	.	8g\	.	8E\)	-ri	.	.	8G\)	-ri	.	8c#X\)	-ri	.
4DD/	4dd 4a/	2ryy	4f\	.	4D\	Se-	.	4A/	4F\	Se-	.	4d\	Se-	.
4CC#X/	4ee 4a/	.	4g\	.	(4C#X/	.	.	[4A/	4G\	.	.	(4e\	.	.
=139	=139	=139	=139	=139	=139	=139	=139	=139	=139	=139	=139	=139	=139	=139
4.DD/	4.dd/	2a/	4.f\	.	4.D\)	.	.	2A/]	4.F\	.	.	4.d\)	.	.
8EE/	8cc#X/	.	8e\	.	8E\	-cu-	.	.	8G\	-cu-	.	8c#X\	-cu-	.
4DD/	4dd 4a/	2ryy	4f\	.	4D\	-li	.	4A/	4F\	-li	.	4d\	-li	.
4GGG/	4bb- 4gg 4dd\	.	4ryy	.	4GG/	A-	.	(>4G/	4G\	A-	.	(4B-\	A-	.
*	*v	*v	*v	*	*	*	*	*v	*v	*	*	*	*	*
=140	=140	=140	=140	=140	=140	=140	=140	=140	=140	=140	=140
2AAA/	4.aa 4.ff 4.dd\	.	[>1AA	.	.	4.F/	.	.	4.A/	.	.
.	8gg 8ee 8cc#X\	.	.	.	.	8E/	.	.	8G/	.	.
2AAA/	4ff 4dd 4a\	.	.	.	.	4C/	.	.	4F/	.	.
.	4dd 4a 4f\	.	.	.	.	4F/	.	.	4d\	.	.
=141	=141	=141	=141	=141	=141	=141	=141	=141	=141	=141	=141
*	*^	*	*	*	*	*	*	*	*	*	*
1AAA	2dd/	1g 1e	.	1AA]	.	.	1E)	.	.	2d\	.	.
.	8dd/L	.	.	.	.	.	.	.	.	8d\L	.	.
.	8cc#X/	.	.	.	.	.	.	.	.	8c#X\	.	.
.	8bn/	.	.	.	.	.	.	.	.	8Bn\	.	.
.	8cc#/J	.	.	.	.	.	.	.	.	8c#\J)	.	.
*	*v	*v	*	*	*	*	*	*	*	*	*	*
=142	=142	=142	=142	=142	=142	=142	=142	=142	=142	=142	=142
*	*	*	*	*	*	*^	*	*	*	*	*
2DD/	2dd 2a 2f\	.	2D/	-men	.	2F/	2ryy	-men	.	2d\	-men	.
2CC#X/	2ee 2a 2g\	.	2C#X/	et	.	2B-/	2G\	et	.	2e\	et	.
=143	=143	=143	=143	=143	=143	=143	=143	=143	=143	=143	=143	=143
*	*^	*	*	*	*	*	*	*	*	*	*	*
*	*	*^	*	*	*	*	*	*	*	*	*	*	*
4.DD/	4.dd/	2a/	4.f\	.	(<4.D/	vi-	.	(2A/	4.F\	vi-	.	(4.d\	vi-	.
8EE/	8cc#X/	.	8g\	.	8E/	.	.	.	8G\	.	.	8c#X\	.	.
!	!	!	!	!	!	!	!	!	!	!	!	!LO:SIC:v:l:s=-tam	!	!
4DD/	4dd 4a/	2ryy	4f\	.	4D/	-tam	.	4A/	4F\	-tam	.	4d\	-tan	.
4CC#X/	4ee 4a/	.	4g\	.	4C#X/)	ven-	.	4A/)	4G\	ven-	.	4e\)	ven-	.
=144	=144	=144	=144	=144	=144	=144	=144	=144	=144	=144	=144	=144	=144	=144
4.DD/	4.dd/	2a/	4.f\	.	4.D/	-tu-	.	2A/	4.F\	-tu-	.	4.d\	-tu-	.
8EE/	8cc#X/	.	8e\	.	8E/	.	.	.	8G\	.	.	8c#X\	.	.
4DD/	4dd 4a/	2ryy	4f\	.	4D/	-ri	.	4A/	4F\	-ri	.	4d\	-ri	.
4CC#X/	4ee 4a/	.	4g\	.	(>4C#X/	Se-	.	[4A/	4G\	Se-	.	(4e\	Se-	.
=145	=145	=145	=145	=145	=145	=145	=145	=145	=145	=145	=145	=145	=145	=145
4.DD/	4.dd/	2a/	4.f\	.	4.D\	-cu-	.	2A/]	4.F\	-cu-	.	4.d\)	.	.
8EE/	8cc#X/	.	8g\	.	8E\)	.	.	.	8G\	.	.	8c#X\	-cu-	.
4DD/	4dd 4a/	2ryy	4f\	.	4D\	-li	.	4A/	4F\	-li	.	4d\	-li	.
4GGG/	4bb- 4gg 4dd\	.	4ryy	.	4GG/	A-	.	4G/	4G\	A-	.	4B-\	A-	.
*	*v	*v	*v	*	*	*	*	*v	*v	*	*	*	*	*
!!LO:LB:g=original
=146	=146	=146	=146	=146	=146	=146	=146	=146	=146	=146	=146
2AAA/	4.aa 4.ff 4.dd\	.	[>1AA	.	.	(>4.F/	.	.	(>4.A/	.	.
.	8gg 8ee 8cc#X\	.	.	.	.	8E/	.	.	8G/	.	.
2AAA/	4ff 4dd 4a\	.	.	.	.	4D/	.	.	4F/	.	.
.	4dd 4a 4f\	.	.	.	.	4F/	.	.	4d\	.	.
=147	=147	=147	=147	=147	=147	=147	=147	=147	=147	=147	=147
*	*^	*	*	*	*	*	*	*	*	*	*
1AAA	2dd/	1g 1e	.	1AA]	.	.	2E/	.	.	2d\	.	.
.	8dd/L	.	.	.	.	.	2G 2E/	.	.	8d\L	.	.
.	8cc#X/	.	.	.	.	.	.	.	.	8c#X\	.	.
.	8bn/	.	.	.	.	.	.	.	.	8Bn\	.	.
.	8cc#/J	.	.	.	.	.	.	.	.	8c#\J)	.	.
=148	=148	=148	=148	=148	=148	=148	=148	=148	=148	=148	=148	=148
2BBB-/	2dd 2f/	2d\	.	2BB-/	-men	.	2F 2D/)	-men	.	2d\	-men	.
2GGG/	2b- 2g/	2d\	.	(>2GG/	A-	.	(>2G 2D/	A-	.	(2B-\	A-	.
*X8ba	*	*	*	*	*	*	*	*	*	*	*	*
*	*v	*v	*	*	*	*	*	*	*	*	*	*
=149	=149	=149	=149	=149	=149	=149	=149	=149	=149	=149	=149
[1AA [1AAA	4.a 4.f/	.	2AA/)	.	.	4.F/	.	.	4.A/	.	.
.	8g 8e/	.	.	.	.	8E/)	.	.	8G/)	.	.
.	4f 4d/	.	4AA/	-men	.	4D/	-men	.	4F/	-men	.
.	4g 4e 4c#X/	.	4AA/	A-	.	4E/	A-	.	4G/	A-	.
=150	=150	=150	=150	=150	=150	=150	=150	=150	=150	=150	=150
1AA_ 1AAA_	4f 4d/	.	1AA	.	.	4D/	.	.	4F/	.	.
.	8eL 8c#X/	.	.	.	.	8C#X/L	.	.	8E/L	.	.
.	8fJ 8d/	.	.	.	.	8D/J	.	.	8F/J	.	.
.	4g 4e/	.	.	.	.	4E/	.	.	4G/	.	.
.	8fL 8d/	.	.	.	.	8D/L	.	.	8F/L	.	.
.	8gJ 8e/	.	.	.	.	8E/J	.	.	8G/J	.	.
=151	=151	=151	=151	=151	=151	=151	=151	=151	=151	=151	=151
*	*^	*	*	*	*	*	*	*	*	*	*
1AA] 1AAA]	4f/	4d\	.	1AA	.	.	2.D/	.	.	2F/	.	.
.	2dd 2a/	4f\	.	.	.	.	.	.	.	.	.	.
.	.	2e\	.	.	.	.	.	.	.	2E/	.	.
.	4cc#X/	.	.	.	.	.	4C#X/	.	.	.	.	.
=152	=152	=152	=152	=152	=152	=152	=152	=152	=152	=152	=152	=152
2D 2DD/	4dd/	4a 4f\	.	2D/	-men	.	2D/	-men	.	2D/	-men	.
.	2dd/	4cc 4a 4f#X\	.	.	.	.	.	.	.	.	.	.
2r	.	4b- 4g\	.	2r	.	.	2r	.	.	2r	.	.
.	4dd/	4cc 4a 4f#X\	.	.	.	.	.	.	.	.	.	.
*	*v	*v	*	*	*	*	*	*	*	*	*	*
=153	=153	=153	=153	=153	=153	=153	=153	=153	=153	=153	=153
*	*	*	*	*	*	*	*	*	*^	*	*
1G 1GG	1dd 1b-X 1g	.	(1G	A-	.	(>1G 1D	A-	.	(1d	1B-	A-	.
=154	=154	=154	=154	=154	=154	=154	=154	=154	=154	=154	=154	=154
*	*^	*	*	*	*	*^	*	*	*	*	*	*
2.Fn 2.FFn/	2.dd/	2.bn 2.g#X\	.	2.Fn\	.	.	2.G#X/	2.F 2.D\	.	.	2.d/	2.Bn\	.	.
4D 4DD/	4dd 4a/	4f#X\	.	4D\)	.	.	4A/)	4F#X\	.	.	4d\)	4ryy	.	.
*	*	*	*	*	*	*	*v	*v	*	*	*	*	*	*
*	*	*	*	*	*	*	*	*	*	*v	*v	*	*
=155	=155	=155	=155	=155	=155	=155	=155	=155	=155	=155	=155	=155
1D 1DD;	1dd;	1a 1f#X	.	1D;	-men	.	1A 1F#X;	-men	.	1d;	-men	.
*	*v	*v	*	*	*	*	*	*	*	*	*	*
==	==	==	==	==	==	==	==	==	==	==	==
*-	*-	*-	*-	*-	*-	*-	*-	*-	*-	*-	*-
!!!system-decoration: <g1><s3>{(p4)}
!!!RDF**kern: > = above
!!!RDF**kern: < = below
!!!ENC: Mateusz Solarz
!!!END: 2021-07-07
!!!ENC: Andrzej Kubiczek
!!!END: 2022-01-07
